icons/copilot-24.svg

<svg width="24" height="24" viewBox="0 0 24 24" fill="none" xmlns="http://www.w3.org/2000/svg">
<g clip-path="url(#clip0_9249_119373)">
<path fill-rule="evenodd" clip-rule="evenodd" d="M23.9219 16.9919C23.0612 18.4872 18.063 22.0154 12 22.0154C5.93696 22.0154 0.938838 18.4872 0.0780782 16.9919C0.0151305 16.8826 -0.00518799 16.7577 -0.00518799 16.6316V13.9697C-0.00518799 13.8593 0.0118459 13.7497 0.0526748 13.6471C0.424898 12.7125 1.39974 11.3548 2.65784 10.9905C2.82463 10.5623 3.07167 9.9364 3.30216 9.47434C3.26358 9.12082 3.25 8.7562 3.25 8.3878C3.25 7.05684 3.53212 5.8894 4.38219 5.02003C4.77924 4.61398 5.27189 4.30251 5.85616 4.06837C7.25542 2.9316 9.248 1.97528 11.9784 1.97528C14.7088 1.97528 16.7446 2.9316 18.1438 4.06837C18.7281 4.30251 19.2208 4.61398 19.6178 5.02003C20.4679 5.8894 20.75 7.05684 20.75 8.3878C20.75 8.7562 20.7364 9.12082 20.6978 9.47434C20.9283 9.9364 21.1754 10.5623 21.3422 10.9905C22.6003 11.3548 23.5751 12.7125 23.9473 13.6471C23.9882 13.7497 24.0052 13.8593 24.0052 13.9697V16.6316C24.0052 16.7577 23.9849 16.8826 23.9219 16.9919ZM12.8132 8.06514C12.7707 7.73362 12.7505 7.43675 12.7499 7.1715L12.7499 7.15053C12.7512 6.38105 12.9194 5.88036 13.1881 5.57286C13.5293 5.18238 14.2345 4.88321 15.7207 5.04406C17.2265 5.20701 18.0681 5.58073 18.5453 6.06873C19.0073 6.54119 19.25 7.24805 19.25 8.3878C19.25 9.59877 19.0755 10.3142 18.6917 10.7494C18.3269 11.1633 17.6084 11.5 16.0347 11.5C14.8248 11.5 14.1331 11.1065 13.6909 10.5623C13.2161 9.97799 12.9489 9.12196 12.8132 8.06514ZM11.1868 8.06514C11.2293 7.73361 11.2495 7.43674 11.2501 7.17149L11.2501 7.15053C11.2488 6.38105 11.0806 5.88036 10.8119 5.57286C10.4707 5.18237 9.76553 4.88321 8.27929 5.04405C6.77353 5.20701 5.93187 5.58073 5.4547 6.06873C4.99273 6.54118 4.75002 7.24804 4.75002 8.3878C4.75002 9.59876 4.92454 10.3142 5.30825 10.7494C5.67313 11.1633 6.39162 11.5 7.96534 11.5C9.17515 11.5 9.86686 11.1065 10.3091 10.5623C10.7839 9.97799 11.0511 9.12196 11.1868 8.06514ZM12.1722 10.9996C12.1148 10.9999 12.2296 10.9996 12.1722 10.9996C12.1149 10.9996 11.8852 10.9999 11.8278 10.9996C11.7219 11.1769 11.6042 11.347 11.4732 11.5083C10.7035 12.4555 9.55456 13 7.96532 13C6.24038 13 4.97622 12.641 4.1831 11.7414C4.138 11.6903 4.09766 11.6367 4.09766 11.6367L4 11.7414V18.3256C5.43481 19.1053 8.5144 20.5046 12 20.5046C15.4856 20.5046 18.5652 19.1053 20 18.3256V11.7414L19.9023 11.6367C19.9023 11.6367 19.8693 11.682 19.8169 11.7414C19.0238 12.641 17.7596 13 16.0347 13C14.4454 13 13.2965 12.4555 12.5268 11.5083C12.3958 11.347 12.2781 11.1769 12.1722 10.9996Z" fill="black"/>
<path fill-rule="evenodd" clip-rule="evenodd" d="M14.5 14.25C15.0523 14.25 15.5 14.6977 15.5 15.25V17.25C15.5 17.8023 15.0523 18.25 14.5 18.25C13.9477 18.25 13.5 17.8023 13.5 17.25V15.25C13.5 14.6977 13.9477 14.25 14.5 14.25Z" fill="black"/>
<path fill-rule="evenodd" clip-rule="evenodd" d="M9.5 14.25C10.0523 14.25 10.5 14.6977 10.5 15.25V17.25C10.5 17.8023 10.0523 18.25 9.5 18.25C8.94772 18.25 8.5 17.8023 8.5 17.25V15.25C8.5 14.6977 8.94772 14.25 9.5 14.25Z" fill="black"/>
</g>
<defs>
<clipPath id="clip0_9249_119373">
<rect width="24" height="24" fill="white"/>
</clipPath>
</defs>
</svg>

<svg xmlns="http://www.w3.org/2000/svg" width="24" height="24" viewBox="0 0 24 24"><path d="M23.922 16.992c-.861 1.495-5.859 5.023-11.922 5.023-6.063 0-11.061-3.528-11.922-5.023A.641.641 0 0 1 0 16.736v-2.869a.841.841 0 0 1 .053-.22c.372-.935 1.347-2.292 2.605-2.656.167-.429.414-1.055.644-1.517a10.195 10.195 0 0 1-.052-1.086c0-1.331.282-2.499 1.132-3.368.397-.406.89-.717 1.474-.952 1.399-1.136 3.392-2.093 6.122-2.093 2.731 0 4.767.957 6.166 2.093.584.235 1.077.546 1.474.952.85.869 1.132 2.037 1.132 3.368 0 .368-.014.733-.052 1.086.23.462.477 1.088.644 1.517 1.258.364 2.233 1.721 2.605 2.656a.832.832 0 0 1 .053.22v2.869a.641.641 0 0 1-.078.256ZM12.172 11h-.344a4.323 4.323 0 0 1-.355.508C10.703 12.455 9.555 13 7.965 13c-1.725 0-2.989-.359-3.782-1.259a2.005 2.005 0 0 1-.085-.104L4 11.741v6.585c1.435.779 4.514 2.179 8 2.179 3.486 0 6.565-1.4 8-2.179v-6.585l-.098-.104s-.033.045-.085.104c-.793.9-2.057 1.259-3.782 1.259-1.59 0-2.738-.545-3.508-1.492a4.323 4.323 0 0 1-.355-.508h-.016.016Zm.641-2.935c.136 1.057.403 1.913.878 2.497.442.544 1.134.938 2.344.938 1.573 0 2.292-.337 2.657-.751.384-.435.558-1.15.558-2.361 0-1.14-.243-1.847-.705-2.319-.477-.488-1.319-.862-2.824-1.025-1.487-.161-2.192.138-2.533.529-.269.307-.437.808-.438 1.578v.021c0 .265.021.562.063.893Zm-1.626 0c.042-.331.063-.628.063-.894v-.02c-.001-.77-.169-1.271-.438-1.578-.341-.391-1.046-.69-2.533-.529-1.505.163-2.347.537-2.824 1.025-.462.472-.705 1.179-.705 2.319 0 1.211.175 1.926.558 2.361.365.414 1.084.751 2.657.751 1.21 0 1.902-.394 2.344-.938.475-.584.742-1.44.878-2.497Z"/><path d="M14.5 14.25a1 1 0 0 1 1 1v2a1 1 0 0 1-2 0v-2a1 1 0 0 1 1-1Zm-5 0a1 1 0 0 1 1 1v2a1 1 0 0 1-2 0v-2a1 1 0 0 1 1-1Z"/></svg>
